packages/kaspersky-hexa-ui-icons/src/iconsSVGs/24/Hob.svg

<svg width="24" height="24" viewBox="0 0 24 24" fill="none" xmlns="http://www.w3.org/2000/svg">
<path fill-rule="evenodd" clip-rule="evenodd" d="M5 9C5 6.79086 6.79086 5 9 5C11.2091 5 13 6.79086 13 9C13 11.2091 11.2091 13 9 13C6.79086 13 5 11.2091 5 9ZM9 7C7.89543 7 7 7.89543 7 9C7 10.1046 7.89543 11 9 11C10.1046 11 11 10.1046 11 9C11 7.89543 10.1046 7 9 7Z" fill="black"/>
<path fill-rule="evenodd" clip-rule="evenodd" d="M12 15.5C12 13.567 13.567 12 15.5 12C17.433 12 19 13.567 19 15.5C19 17.433 17.433 19 15.5 19C13.567 19 12 17.433 12 15.5ZM15.5 14C14.6716 14 14 14.6716 14 15.5C14 16.3284 14.6716 17 15.5 17C16.3284 17 17 16.3284 17 15.5C17 14.6716 16.3284 14 15.5 14Z" fill="black"/>
<path d="M6 19C6.55228 19 7 18.5523 7 18C7 17.4477 6.55228 17 6 17C5.44772 17 5 17.4477 5 18C5 18.5523 5.44772 19 6 19Z" fill="black"/>
<path d="M9 19C9.55228 19 10 18.5523 10 18C10 17.4477 9.55228 17 9 17C8.44772 17 8 17.4477 8 18C8 18.5523 8.44772 19 9 19Z" fill="black"/>
<path fill-rule="evenodd" clip-rule="evenodd" d="M5 2C3.34315 2 2 3.34315 2 5V19C2 20.6569 3.34315 22 5 22H19C20.6569 22 22 20.6569 22 19V5C22 3.34315 20.6569 2 19 2H5ZM4 5C4 4.44772 4.44772 4 5 4H19C19.5523 4 20 4.44772 20 5V19C20 19.5523 19.5523 20 19 20H5C4.44772 20 4 19.5523 4 19V5Z" fill="black"/>
</svg>

<svg xmlns="http://www.w3.org/2000/svg" width="24" height="24" fill="none" viewBox="0 0 24 24"><path fill="#000" fill-rule="evenodd" d="M5 2C3.3431 2 2 3.3431 2 5v14c0 1.6569 1.3431 3 3 3h14c1.6569 0 3-1.3431 3-3V5c0-1.6569-1.3431-3-3-3zM4 5c0-.5523.4477-1 1-1h14c.5523 0 1 .4477 1 1v14c0 .5523-.4477 1-1 1H5c-.5523 0-1-.4477-1-1zm1 4c0-2.2091 1.7909-4 4-4s4 1.7909 4 4-1.7909 4-4 4-4-1.7909-4-4m4-2c-1.1046 0-2 .8954-2 2s.8954 2 2 2 2-.8954 2-2-.8954-2-2-2m3 8.5c0-1.933 1.567-3.5 3.5-3.5s3.5 1.567 3.5 3.5-1.567 3.5-3.5 3.5-3.5-1.567-3.5-3.5m3.5-1.5c-.8284 0-1.5.6716-1.5 1.5s.6716 1.5 1.5 1.5 1.5-.6716 1.5-1.5-.6716-1.5-1.5-1.5M7 18c0 .5523-.4477 1-1 1s-1-.4477-1-1 .4477-1 1-1 1 .4477 1 1m3 0c0 .5523-.4477 1-1 1s-1-.4477-1-1 .4477-1 1-1 1 .4477 1 1"/></svg>
